!! 00043] TT[TB
!! Kassette TP 6775, HfM, Peking)
!!!OTL: Shange,yao chang chang dasheng
!!!ARE: Asia, China,ÿTaiwan, Xinzhu Miaoli
!! Ethnic Group: Han, Kejia
!! IV, 621
!!!SCT: C1203
!!!YEM: Copyright 1995, estate of Helmut Schaffrath.
**kern
*ICvox
*Ivox
*M2/4
*k[f#]
*G:
{8dd
16dd
16ee
8ee
8dd
=1
8ee
16a
16b
4dd
=2
8dd
16a
16b
8a
8e}
=3
{8ee
16ee
16b
8dd
8ee
=4
8b
8dd
8b
8a
=5
2g}
=6
{8b
8b
8dd
8b
=7
8b
16a
16b
16e
16g
8e
=8
8e
4d
8r}
=9
{8b
8b
8.b
16e
=10
8d
16d
16e
8.f#
16e
=11
2d}
=12
{8b
16b
16dd
8ee
8dd
=13
8a
16a
16b
8.dd
16ee
=14
4.g
8e}
=15
{4dd
4b
=16
8dd
16a
16b
8.a
16b
=17
4g
8e
8r}
=18
{8ee
16b
16dd
8b
8dd
=19
8g
16a
16b
16e
16g
8e
=20
4.d
8r}
=21
{8gg
8ee
8gg
8b
=22
8dd
16dd
16ee
8gg
16ee
16b
=23
[2dd
=24
4.dd]
8r}
==
!!!AGN: Shange, Kejia shange, Pingban diao
!! z. T. schlechte Tonqualitaet. Die Melodien gehen z.T. ineinander
!!    ueber. STUECKE NACH HOEREN NEU EINTEILEN!
!!    INHALT KOPIERT ZUM UEBERSETZEN!! NOTENANGABE BEACHTEN!
!!    Einige Verzierungen, Glissandi. Zwischenspiele weggelassen.
!!!ONB: ESAC (Essen Associative Code) Database: CHINA
!!!AMT: simple duple
!!!AIN: vox
!!!EED: Helmut Schaffrath
!!!EEV: 1.0
*-
!!!ONB: Tied note syntax fixed by Craig Sapp, 2004/05/03/
